public/assets/images/strava.svg

<svg height="250" viewBox="0 0 180 250" width="180" xmlns="http://www.w3.org/2000/svg"><path d="m2420.02674 288.000298-73.10801 143.23053h45.5075l27.60051-55.204008 29.8415 55.204008h43.26801zm72.03586 143.231127-20.56125 41.12251-22.22782-41.12251h-32.23019l54.45801 106.692937 54.45801-106.692937z" fill="#fff" fill-rule="evenodd" transform="translate(-2346 -288)"/></svg>

<?xml version="1.0" encoding="UTF-8" standalone="no"?>
<svg width="180px" height="250px" viewBox="0 0 180 250" version="1.1" xmlns="http://www.w3.org/2000/svg" xmlns:xlink="http://www.w3.org/1999/xlink">
    <!-- Generator: Sketch 39.1 (31720) - http://www.bohemiancoding.com/sketch -->
    <title>strava</title>
    <desc>Created with Sketch.</desc>
    <defs></defs>
    <g id="Page-1" stroke="none" stroke-width="1" fill="none" fill-rule="evenodd">
        <g id="Artboard" transform="translate(-2346.000000, -288.000000)" fill="#FFFFFF">
            <path d="M2420.02674,288.000298 L2346.91873,431.230828 L2392.42623,431.230828 L2420.02674,376.02682 L2449.86824,431.230828 L2493.13625,431.230828 L2420.02674,288.000298 Z M2492.0626,431.231425 L2471.50135,472.353935 L2449.27353,431.231425 L2417.04334,431.231425 L2471.50135,537.924362 L2525.95936,431.231425 L2492.0626,431.231425 Z" id="strava"></path>
        </g>
    </g>
</svg>
